X:16
T: O'er Bogie
N: HA016
O: Europa, Mitteleuropa, Deutschland
N: beginnt in Dur, endet in moll; Haupttonart: Dur,aw mit und ohne Auftakt
M: 4/4
L: 1/16
K: Bb
f2 | b3cb2g2b2f2f2
g2 | b3cb2g2gf3z2
f2 | g2c2c2b2c3de2
g2 | fd3c2b2bg3z2
f2 | b4def2b4def2 |
b3cb2g2gf3z2
f2 | g2c2c2b2c2d2e2
g2 | fd3c2b2bg3z2

